style/elvis/src/icons/svg/src/phone.svg

<svg width="25" height="25" viewBox="0 0 25 25" fill="none" xmlns="http://www.w3.org/2000/svg">
<path d="M19.023 24.0683C17.83 24.0683 16.661 23.7249 15.641 23.0752C15.638 23.0732 15.615 23.0582 15.612 23.0572C10.219 19.407 5.637 14.8187 1.993 9.4185C0.387 6.8916 0.734 3.6649 2.833 1.56348L3.607 0.788595C4.097 0.299033 4.748 0.0297241 5.442 0.0297241C6.136 0.0297241 6.787 0.299033 7.276 0.788595L10.538 4.05835C11.548 5.07151 11.547 6.7184 10.536 7.72956C10.11 8.15706 10.11 8.85285 10.537 9.28034C10.537 9.28034 15.765 14.5154 15.769 14.5194C15.962 14.7116 16.237 14.8257 16.529 14.8257C16.821 14.8257 17.096 14.7116 17.302 14.5053C17.792 14.0158 18.443 13.7455 19.137 13.7455C19.831 13.7455 20.482 14.0148 20.972 14.5043L24.233 17.7681C25.244 18.7813 25.244 20.4291 24.233 21.4413L23.459 22.2162C22.266 23.4106 20.69 24.0683 19.023 24.0683ZM16.442 21.8057C17.24 22.3063 18.125 22.5636 19.025 22.5636C20.292 22.5636 21.489 22.063 22.397 21.154L23.171 20.3791C23.597 19.9516 23.597 19.2558 23.171 18.8283L19.911 15.5656C19.705 15.3593 19.43 15.2462 19.137 15.2462C18.844 15.2462 18.569 15.3603 18.363 15.5666C17.874 16.0561 17.222 16.3264 16.529 16.3264C15.84 16.3264 15.192 16.0601 14.705 15.5756L9.477 10.3406C8.466 9.3274 8.466 7.67951 9.477 6.66734C9.901 6.24186 9.903 5.54806 9.478 5.12057C9.473 5.11556 9.456 5.09754 9.451 5.09254L6.215 1.84981C6.009 1.64458 5.734 1.53145 5.442 1.53145C5.149 1.53145 4.874 1.64558 4.667 1.85182L3.893 2.6257C2.296 4.22454 2.027 6.67535 3.24 8.58354C6.77 13.8146 11.213 18.2657 16.442 21.8057Z" fill="black"/>
</svg>

<svg width="25" height="25" fill="none" xmlns="http://www.w3.org/2000/svg"><path d="M19.023 24.068a6.288 6.288 0 01-3.411-1.01A50.513 50.513 0 011.993 9.417C.387 6.893.734 3.665 2.833 1.563L3.607.79A2.578 2.578 0 015.442.03c.694 0 1.345.27 1.834.76l3.262 3.27a2.602 2.602 0 01-.002 3.67 1.1 1.1 0 00.001 1.551l5.232 5.24c.193.192.468.306.76.306s.567-.114.773-.32c.49-.49 1.141-.76 1.835-.76s1.345.269 1.835.758l3.261 3.264a2.603 2.603 0 010 3.673l-.774.775a6.236 6.236 0 01-4.436 1.852zm-2.581-2.262a4.84 4.84 0 002.583.758 4.74 4.74 0 003.372-1.41l.774-.775a1.1 1.1 0 000-1.55l-3.26-3.263a1.086 1.086 0 00-.774-.32c-.293 0-.568.114-.774.32-.489.49-1.141.76-1.834.76a2.57 2.57 0 01-1.824-.75L9.477 10.34a2.603 2.603 0 010-3.674 1.098 1.098 0 00.001-1.546l-.027-.028L6.215 1.85a1.089 1.089 0 00-.773-.319c-.293 0-.568.115-.775.32l-.774.775a4.766 4.766 0 00-.653 5.958 48.996 48.996 0 0013.202 13.222z" fill="#1B314B"/></svg>
